packages/ui/public/icons/profile-twitch-icon.svg

<svg fill="#FFF" xmlns="http://www.w3.org/2000/svg" viewBox="0 0 30 30"><path d="M6 4 4 8v16h5v3h4l3-3h4l6-6V4H6zm2 2h16v11l-3 3h-6l-3 3v-3H8V6zm5 3v7h2V9h-2zm4 0v7h2V9h-2z"/></svg>

<svg fill="#FFFFFF" xmlns="http://www.w3.org/2000/svg" viewBox="0 0 30 30"><path
    d="M 6 4 L 4 8 L 4 24 L 9 24 L 9 27 L 13 27 L 16 24 L 20 24 L 26 18 L 26 4 L 6 4 z M 8 6 L 24 6 L 24 17 L 21 20 L 15 20 L 12 23 L 12 20 L 8 20 L 8 6 z M 13 9 L 13 16 L 15 16 L 15 9 L 13 9 z M 17 9 L 17 16 L 19 16 L 19 9 L 17 9 z"
  /></svg>
